X: 15193
T: Gillie Callum
R: strathspey
M: 4/4
K: Amixolydian
A2 c>A d2 B>G|A<e c>A e2 c>A|e2 c>A d2 B>G|A<e c>e d>B e2:|
A2 c>e g2 d>B|A<e c>e a2 e>f|g>a g>e d<g B>G|A<e c>e d>B e2:|

